public/avatar/body/198.svg

<svg xmlns:xlink="http://www.w3.org/1999/xlink" height="82" width="84.85" xmlns="http://www.w3.org/2000/svg"><g transform="translate(37.4 42.25)"><use height="38" transform="translate(-11.95 -17.45)" width="32.05" xlink:href="#a"/><use height="38.95" transform="translate(-12.45 -17.95)" width="33.05" xlink:href="#b"/><use height="24.55" transform="translate(-13.55 2.85)" width="34.9" xlink:href="#c"/></g><defs><use height="38" width="32.05" xlink:href="#d" id="a"/><use height="38.95" width="33.05" xlink:href="#e" id="b"/><use height="24.55" width="34.9" xlink:href="#f" id="c"/><path d="M27.35 7.4q2.15 4.15 3.55 8.75 1.45 4.7 1.15 9.5-.35 4.95-4.2 8.1-3.8 3.2-8.75 4.05l-2.6.2q-3.6 0-7.05-1.15-4.65-1.6-7.1-5.5Q-.2 27.4.05 23q.2-4.4 2-9.3Q3.85 8.75 7 5.05 10.1 1.3 14.7.1l1.8-.1q1.9.05 3.7.8 4.75 2.05 7.15 6.6" fill="#dd994f" fill-rule="evenodd" transform="translate(-.05)" id="d"/><path d="M27.35 7.4Q24.95 2.85 20.2.8 17.55-.3 14.7.1 10.1 1.3 7 5.05q-3.15 3.7-4.95 8.65-1.8 4.9-2 9.3-.25 4.4 2.3 8.35 2.45 3.9 7.1 5.5 4.65 1.55 9.65.95 4.95-.85 8.75-4.05 3.85-3.15 4.2-8.1.3-4.8-1.15-9.5-1.4-4.6-3.55-8.75Z" fill="none" stroke="#532e0f" stroke-linecap="round" stroke-linejoin="round" transform="translate(.45 .5)" id="e"/><g id="f" fill-rule="evenodd"><path d="M20.3 6.4q-1.15 1.7-16.85 5.5Q-1 10.2.3 4q-.45-.7-.2-1.5l.35-.6Q0 1.05.75.45l.8-.45q5.2 2.9 18.75 6.4" fill="#333e49"/><path d="M19.15 6.85q-2.55 1.5-15.3 4.65Q.2 9.45 1.15 3.8q-.35-.35-.1-.9l.3-.5q-.3-.35-.1-1.1L1.5.65q4.45 3 17.65 6.2" fill="#fff"/><path d="M1.8.8q4.5 2.95 16 5.6l-2.85.95Q3.4 2.9 1.8.8" fill="#f2ec81"/><path d="M1.65.8q7.9 6.5 10.25 7.4-.85.45-2.5.95Q1.65 2.1 1.65.8" fill="#f2ec81"/><path d="M1.3 1.2q4.9 8.1 6.1 8.55L6 10.2q-4.7-7.55-4.7-9" fill="#f2ec81"/><path d="m1.3 1.2 1 4.25Q3.45 9.9 4.35 10.8l-1 .25Q.75 2.7 1.3 1.2m1.2 1.05L3.25 4 2.1 2.35Q1.05.75 1.45.7L2.5 2.25" fill="#f2ec81"/><path d="m1.3 1.2.5 4.55-.6.85-.1.35-.05-.2.15-.15-.05-2.7q-.65-.8.1-1.3-.55-1.05.05-1.4" fill="#f2ec81"/><path d="M1.5.65Q10 7.7 13.95 8.15l.15.05q3.8.3-1.95.75Q2.6 2.85 1.5.65" fill="#acacad"/><path d="M1.25.95q5.7 9.1 7.6 9.05l-1.35.35Q3.35 5.85 1.25.95m.1.25q1.8 8.25 4 9.9l-1.2.15Q1.45 5.1 1.35 1.2" fill="#acacad"/><path d="m2.9 12.05 2-.45 12.95 1.45-.25 6.1-10.25 3.4-2.4-1.8q-.6-.35-.6-.8l.1-.4Q3.5 19.3 2.8 17l.75-1.25-.65-3.7" fill="#333e49"/><path d="M29.75 20.9 27 22.35l-9.4-3.2-1.3-2.3 1.55-.1 7.85 1.6 4.85-5.85 1.85-.7q1.5 1.6-.7 3.8l-.15 1.65q.65.65-1.05 2.4l-.75 1.25" fill="#333e49"/><path d="m31.45 17.15-1.7 3.45-2.2 1.4-9.9-3.5q-.3.85-10.55 3.9l.2-.1-2.4-2.15.2-.6q-.5-.05-1.95-2.25l.95-1.4q.75.3.15 0-.35-.2-.55-1.85l-.1-1.65 28.2-.1q-.2.15.1 1.1.5 1.45-.35 2.45l-.1 1.3" fill="#333e49"/><path d="m7.9 22.05.15-.15-.75-1.35 10.6-4.1 9.3 5.35-10.45 2.75q-3.15-.25-8.85-2.5m26.9-15.8q-.5 3.15-2.5 6.05-3.15 4.65-28.65.8-1.95-.85-1.35-1.65L33.8.5l1.05.9.05.95-.1 3.9" fill="#333e49"/><path d="M7.5 21.65 5.4 20l-.1-.9-1.75-2 1.35-1.35-.5-.45-.5-2.55.35-1.6L17.9 12.7l-.05 5.3Q16.5 19 7.5 21.65" fill="#fff"/><path d="M30.8 17.25 30 18.9q-.3 1.15-1 1.55l-1.3.9q-8.8-2.3-10.15-3.3l.25-5.35L31.6 11l.1 2.15-.9 2.65v1.45M4.15 12.6q-2.8-.45.15-1.4l-.15 1.4" fill="#fff"/><path d="m8.15 21.35 3.15-2.1 4.2-2.15 6.2.05 5.05 4.15-10.3 2.1q-.85.2-8.15-2l-.15-.05m23.4-9.55L17.45 15 3.4 11.5Q13.8 8.85 33.7 1.4q.5 0 .25 1.15.5.7-.05 1.8.35 4.3-2.35 7.45" fill="#fff"/><path d="M34 2.45Q20 9.9 4.15 14.95l.1-1.7L34 2.45" fill="#f2ec81"/><path d="M34 2.45q-2 2.35-28.6 17l-2-2.55Q13 14.4 34 2.45" fill="#f2ec81"/><path d="M33.9 2.9q-8.65 9.7-26.65 18.7L5.9 20.5q5.5-1.5 28-17.6" fill="#f2ec81"/><path d="M33.9 2.9Q29.15 11 14 22.95l-4.75-1.2Q19.4 18.55 33.9 2.9" fill="#f2ec81"/><path d="M33.9 2.9q-.65 2.7-9.65 19.05l-5.1.9q1.25-.9 14.75-19.95m-.2-1.5Q32.3 2.9 3.4 12.35q-1.5-.4 1-1.15 2.05-.4 29.3-9.8" fill="#f2ec81"/><path d="M33.9 2.9q.15 1.45-4.5 17.4l-2 1.05q.5-.3 6.5-18.45m-2.7-.5q1 0 2.5-1 .35.1.3 1.05-.95.6-5.95 2.1 1-.35 3.15-2.15" fill="#f2ec81"/><path d="M33.95 2.55q-18.8 8.8-29.8 11.3l-.25-1.4q4 .55 30.05-9.9" fill="#acacad"/><path d="M33.95 2.55Q17.05 13 3.55 17.1l1.35-1.35q15.8-5.4 29.05-13.2m.1.15q-17.9 14-27.85 18.05l-.75-.6Q17.2 14.5 34.05 2.7m0 0Q22.8 19.3 19.4 22.85q-.9.55-2.45.6 2.5-.2 17.1-20.75" fill="#acacad"/><path d="M34.05 2.7q-.35 2.75-6.35 18.65l-1.4.05q.85-.2 7.75-18.7m0 0Q23.95 14.25 15.8 19.2q-4.1 2.5-6.15 2.65l-1.4-.45q7.35.45 25.8-18.7" fill="#acacad"/><path d="m22.6 17.9-.9-.75h-.85l4.05-3.75 1.45-.3-3.75 4.8" fill="#cfcfcf"/><path d="m16.7 23.1-2.15-.6 6.3-5.35h.85l.9.75q-3.3 3.95-4.6 4.95l-1.3.25m8.2-9.7q3.95-3.85 6.15-6.55l-4.7 6.25-1.45.3" fill="#cfcfcf"/><path d="m33.4 3.55-2.35 3.3q-2.2 2.7-6.15 6.55l-4.05 3.75-6.3 5.35-3.7-.95q3.6-1.15 8.25-4.55l3.35-2.7q5.1-4.25 10.95-10.9v.15" fill="#c4c069"/><path d="m26.4 21-1.1-.9 4.1-7.7 1.05-.3-3.75 8.8-.3.1" fill="#cfcfcf"/><path d="m24.55 21.4.75-1.3 1.1.9-1.85.4m5.9-9.3-1.05.3 4-8.2v.15l-2.95 7.75" fill="#cfcfcf"/><path d="m24.55 21.4-4.85 1.1Q23.65 18 33.4 3.6v.6l-4 8.2-4.85 9" fill="#c4c069"/><path d="m31.55 6.15 1.85-2.6v.05Q23.65 18 19.7 22.5l-1.7.35q1.3-1 4.6-4.95l8.95-11.75" fill="#8c8c8c"/><path d="M9.65 21.25 8.6 21l.2-.1 5.55-1.6q-2.7 1.6-4.7 1.95" fill="#cfcfcf"/><path d="m27.95 20.6 3.1-8.4q-.1 2.35-.85 3.2-.5 4.15-2.25 5.2" fill="#c4c069"/><path d="m24.25 11.9.45-.95 5.05-4-5.5 4.95" fill="#cfcfcf"/><path d="m24.7 10.95.5-1.65L33 3.5l.4-.3v.15l-3.65 3.6-5.05 4" fill="#c4c069"/><path d="M29.05 4.25 15.35 9.3q-3.05.6-4.65 1.15 4.7-2 9.3-3.7l10-3.4-1.9 1.2.95-.3" fill="#cfcfcf"/><path d="m15.35 9.3 13.7-5.05 4.35-1.5-.1.05q-7.65 3.15-16.75 6.25l-1.2.25" fill="#c4c069"/><path d="m25.3 8.55.05-.45q6.2-3.65 8.05-5.15v.2l-8.1 5.4" fill="#cfcfcf"/><path d="m25.35 8.1.05-.35-.6.05q4.45-2.4 8.6-4.95v.1q-1.85 1.5-8.05 5.15" fill="#c4c069"/><path d="m23.65 7.95-1.8.25q5.35-2.25 10.7-5l.55-.25-9.45 5" fill="#cfcfcf"/><path d="m20.25 8.45 12.3-5.25q-5.35 2.75-10.7 5l-1.6.25M30 3.35l3.4-1.05v.45l-4.35 1.5-.95.3 1.9-1.2" fill="#c4c069"/><path d="m32.55 3.2-12.3 5.25-3.7.6q9.1-3.1 16.75-6.25l.1-.05v.05l-.85.4m-8.9 4.75 2.1-1.05 7.65-4.05Q29.25 5.4 24.8 7.8l-1.15.15M25.2 9.3l.1-.75 8.1-5.4v.05l-.4.3-7.8 5.8" fill="#8c8c8c"/><path d="m31.6 10.6 1.7-5.1-.1.9-.65 2.5-.95 1.7" fill="#c4c069"/><path d="m33.4 4.45-.1 1.05-1.7 5.1-.55.6v1l-3.1 8.4-.8.25h-.1l-.35.05 3.75-8.8 2.95-7.65M9.65 21.25q2-.35 4.7-1.95 2.7-1.05 4.75-2.3-4.65 3.4-8.25 4.55l-1.2-.3M33.4 3.35v.05q-5.85 6.65-10.95 10.9l1.8-2.4 9.15-8.55" fill="#8c8c8c"/><path d="m12.5 7.8-.7-.3 2.5-.4.2.05-2 .65M1.75 5.1l1.3 5.05Q1.9 8 1.45 6l.35-.25-.05-.65m1.55.5 2.45 4.2-1.25.35Q3.4 8.5 2.2 4.5l1.1 1.1m4.25 3.7L5.3 6.8l2.25.65 1.5 1.4-1.5.45" fill="#cfcfcf"/><path d="m10.15 7.6.9.6-2 .65-1.5-1.4 2.6.15m-4.4 2.2L3.3 5.6l1 .7 2.45 3.2-1 .3m-2.55.65-.15-.3-1.3-5.05-.2-1.65.1.2q.6 3.1 2.15 6.7l-.6.1m-1.4-4.7L1.45 6q-.4-1.65-.05-2.95l.15.4.25 2.3" fill="#c4c069"/><path d="m11.05 8.2-.9-.6 1.65-.1.7.3-1.45.4m-4.3 1.3L4.3 6.3l1 .5 2.25 2.5-.8.2m-2.95.85q-1.55-3.6-2.15-6.7l.55.85q1.2 4 2.3 5.65l-.7.2" fill="#8c8c8c"/></g></defs></svg>

<?xml version="1.0" encoding="UTF-8" standalone="no"?>
<svg xmlns:xlink="http://www.w3.org/1999/xlink" height="82.0px" width="84.85px" xmlns="http://www.w3.org/2000/svg">
  <g transform="matrix(1.0, 0.0, 0.0, 1.0, 37.4, 42.25)">
    <use height="38.0" transform="matrix(1.0, 0.0, 0.0, 1.0, -11.95, -17.45)" width="32.05" xlink:href="#sprite0"/>
    <use height="38.95" transform="matrix(1.0, 0.0, 0.0, 1.0, -12.45, -17.95)" width="33.05" xlink:href="#sprite1"/>
    <use height="24.55" transform="matrix(1.0, 0.0, 0.0, 1.0, -13.55, 2.85)" width="34.9" xlink:href="#sprite2"/>
  </g>
  <defs>
    <g id="sprite0" transform="matrix(1.0, 0.0, 0.0, 1.0, -0.05, 0.0)">
      <use height="38.0" transform="matrix(1.0, 0.0, 0.0, 1.0, 0.05, 0.0)" width="32.05" xlink:href="#shape0"/>
    </g>
    <g id="shape0" transform="matrix(1.0, 0.0, 0.0, 1.0, -0.05, 0.0)">
      <path d="M27.35 7.4 Q29.5 11.55 30.9 16.15 32.35 20.85 32.05 25.65 31.7 30.6 27.85 33.75 24.05 36.95 19.1 37.8 L16.5 38.0 Q12.9 38.0 9.45 36.85 4.8 35.25 2.35 31.35 -0.2 27.4 0.05 23.0 0.25 18.6 2.05 13.7 3.85 8.75 7.0 5.05 10.1 1.3 14.7 0.1 L16.5 0.0 Q18.4 0.05 20.2 0.8 24.95 2.85 27.35 7.4" fill="#dd994f" fill-rule="evenodd" stroke="none"/>
    </g>
    <g id="sprite1" transform="matrix(1.0, 0.0, 0.0, 1.0, 0.45, 0.5)">
      <use height="38.95" transform="matrix(1.0, 0.0, 0.0, 1.0, -0.45, -0.5)" width="33.05" xlink:href="#shape1"/>
    </g>
    <g id="shape1" transform="matrix(1.0, 0.0, 0.0, 1.0, 0.45, 0.5)">
      <path d="M27.35 7.4 Q24.95 2.85 20.2 0.8 17.55 -0.3 14.7 0.1 10.1 1.3 7.0 5.05 3.85 8.75 2.05 13.7 0.25 18.6 0.05 23.0 -0.2 27.4 2.35 31.35 4.8 35.25 9.45 36.85 14.1 38.4 19.1 37.8 24.05 36.95 27.85 33.75 31.7 30.6 32.05 25.65 32.35 20.85 30.9 16.15 29.5 11.55 27.35 7.4 Z" fill="none" stroke="#532e0f" stroke-linecap="round" stroke-linejoin="round" stroke-width="1.0"/>
    </g>
    <g id="sprite2" transform="matrix(1.0, 0.0, 0.0, 1.0, 0.0, 0.0)">
      <use height="24.55" transform="matrix(1.0, 0.0, 0.0, 1.0, 0.0, 0.0)" width="34.9" xlink:href="#shape2"/>
    </g>
    <g id="shape2" transform="matrix(1.0, 0.0, 0.0, 1.0, 0.0, 0.0)">
      <path d="M20.3 6.4 Q19.15 8.1 3.45 11.9 -1.0 10.2 0.3 4.0 -0.15 3.3 0.1 2.5 L0.45 1.9 Q0.0 1.05 0.75 0.45 L1.55 0.0 Q6.75 2.9 20.3 6.4" fill="#333e49" fill-rule="evenodd" stroke="none"/>
      <path d="M19.15 6.85 Q16.6 8.35 3.85 11.5 0.2 9.45 1.15 3.8 0.8 3.45 1.05 2.9 L1.35 2.4 Q1.05 2.05 1.25 1.3 L1.5 0.65 Q5.95 3.65 19.15 6.85" fill="#ffffff" fill-rule="evenodd" stroke="none"/>
      <path d="M1.8 0.8 Q6.3 3.75 17.8 6.4 L14.95 7.35 Q3.4 2.9 1.8 0.8" fill="#f2ec81" fill-rule="evenodd" stroke="none"/>
      <path d="M1.65 0.8 Q9.55 7.3 11.9 8.2 11.05 8.65 9.4 9.15 1.65 2.1 1.65 0.8" fill="#f2ec81" fill-rule="evenodd" stroke="none"/>
      <path d="M1.3 1.2 Q6.2 9.3 7.4 9.75 L6.0 10.2 Q1.3 2.65 1.3 1.2" fill="#f2ec81" fill-rule="evenodd" stroke="none"/>
      <path d="M1.3 1.2 L2.3 5.45 Q3.45 9.9 4.35 10.8 L3.35 11.05 Q0.75 2.7 1.3 1.2" fill="#f2ec81" fill-rule="evenodd" stroke="none"/>
      <path d="M2.5 2.25 L3.25 4.0 2.1 2.35 Q1.05 0.75 1.45 0.7 L2.5 2.25" fill="#f2ec81" fill-rule="evenodd" stroke="none"/>
      <path d="M1.3 1.2 L1.8 5.75 1.2 6.6 1.1 6.95 1.05 6.75 1.2 6.6 1.15 3.9 Q0.5 3.1 1.25 2.6 0.7 1.55 1.3 1.2" fill="#f2ec81" fill-rule="evenodd" stroke="none"/>
      <path d="M1.5 0.65 Q10.0 7.7 13.95 8.15 L14.1 8.2 Q17.9 8.5 12.15 8.95 2.6 2.85 1.5 0.65" fill="#acacad" fill-rule="evenodd" stroke="none"/>
      <path d="M1.25 0.95 Q6.95 10.05 8.85 10.0 L7.5 10.35 Q3.35 5.85 1.25 0.95" fill="#acacad" fill-rule="evenodd" stroke="none"/>
      <path d="M1.35 1.2 Q3.15 9.45 5.35 11.1 L4.15 11.25 Q1.45 5.1 1.35 1.2" fill="#acacad" fill-rule="evenodd" stroke="none"/>
      <path d="M2.9 12.05 L4.9 11.6 17.85 13.05 17.6 19.15 7.35 22.55 4.95 20.75 Q4.35 20.4 4.35 19.95 L4.45 19.55 Q3.5 19.3 2.8 17.0 L3.55 15.75 2.9 12.05" fill="#333e49" fill-rule="evenodd" stroke="none"/>
      <path d="M29.75 20.9 L27.0 22.35 17.6 19.15 16.3 16.85 17.85 16.75 25.7 18.35 30.55 12.5 32.4 11.8 Q33.9 13.4 31.7 15.6 L31.55 17.25 Q32.2 17.9 30.5 19.65 L29.75 20.9" fill="#333e49" fill-rule="evenodd" stroke="none"/>
      <path d="M31.45 17.15 L29.75 20.6 27.55 22.0 17.65 18.5 Q17.35 19.35 7.1 22.4 L7.3 22.3 4.9 20.15 5.1 19.55 Q4.6 19.5 3.15 17.3 L4.1 15.9 Q4.85 16.2 4.25 15.9 3.9 15.7 3.7 14.05 L3.6 12.4 31.8 12.3 Q31.6 12.45 31.9 13.4 32.4 14.85 31.55 15.85 L31.45 17.15" fill="#333e49" fill-rule="evenodd" stroke="none"/>
      <path d="M7.9 22.05 L8.05 21.9 7.3 20.55 17.9 16.45 27.2 21.8 16.75 24.55 Q13.6 24.3 7.9 22.05" fill="#333e49" fill-rule="evenodd" stroke="none"/>
      <path d="M34.8 6.25 Q34.3 9.4 32.3 12.3 29.15 16.95 3.65 13.1 1.7 12.25 2.3 11.45 L33.8 0.5 34.85 1.4 34.9 2.35 34.8 6.25" fill="#333e49" fill-rule="evenodd" stroke="none"/>
      <path d="M7.5 21.65 L5.4 20.0 5.3 19.1 3.55 17.1 4.9 15.75 4.4 15.3 3.9 12.75 4.25 11.15 17.9 12.7 17.85 18.0 Q16.5 19.0 7.5 21.65" fill="#ffffff" fill-rule="evenodd" stroke="none"/>
      <path d="M30.8 17.25 L30.0 18.9 Q29.7 20.05 29.0 20.45 L27.7 21.35 Q18.9 19.05 17.55 18.05 L17.8 12.7 31.6 11.0 31.7 13.15 30.8 15.8 30.8 17.25" fill="#ffffff" fill-rule="evenodd" stroke="none"/>
      <path d="M4.15 12.6 Q1.35 12.15 4.3 11.2 L4.15 12.6" fill="#ffffff" fill-rule="evenodd" stroke="none"/>
      <path d="M8.15 21.35 L11.3 19.25 15.5 17.1 21.7 17.15 26.75 21.3 16.45 23.4 Q15.6 23.6 8.3 21.4 L8.15 21.35" fill="#ffffff" fill-rule="evenodd" stroke="none"/>
      <path d="M31.55 11.8 L17.45 15.0 3.4 11.5 Q13.8 8.85 33.7 1.4 34.2 1.4 33.95 2.55 34.45 3.25 33.9 4.35 34.25 8.65 31.55 11.8" fill="#ffffff" fill-rule="evenodd" stroke="none"/>
      <path d="M34.0 2.45 Q20.0 9.9 4.15 14.95 L4.25 13.25 34.0 2.45" fill="#f2ec81" fill-rule="evenodd" stroke="none"/>
      <path d="M34.0 2.45 Q32.0 4.8 5.4 19.45 L3.4 16.9 Q13.0 14.4 34.0 2.45" fill="#f2ec81" fill-rule="evenodd" stroke="none"/>
      <path d="M33.9 2.9 Q25.25 12.6 7.25 21.6 L5.9 20.5 Q11.4 19.0 33.9 2.9" fill="#f2ec81" fill-rule="evenodd" stroke="none"/>
      <path d="M33.9 2.9 Q29.15 11.0 14.0 22.95 L9.25 21.75 Q19.4 18.55 33.9 2.9" fill="#f2ec81" fill-rule="evenodd" stroke="none"/>
      <path d="M33.9 2.9 Q33.25 5.6 24.25 21.95 L19.15 22.85 Q20.4 21.95 33.9 2.9" fill="#f2ec81" fill-rule="evenodd" stroke="none"/>
      <path d="M33.7 1.4 Q32.3 2.9 3.4 12.35 1.9 11.95 4.4 11.2 6.45 10.8 33.7 1.4" fill="#f2ec81" fill-rule="evenodd" stroke="none"/>
      <path d="M33.9 2.9 Q34.05 4.35 29.4 20.3 L27.4 21.35 Q27.9 21.05 33.9 2.9" fill="#f2ec81" fill-rule="evenodd" stroke="none"/>
      <path d="M31.2 2.4 Q32.2 2.4 33.7 1.4 34.05 1.5 34.0 2.45 33.05 3.05 28.05 4.55 29.05 4.2 31.2 2.4" fill="#f2ec81" fill-rule="evenodd" stroke="none"/>
      <path d="M33.95 2.55 Q15.15 11.35 4.15 13.85 L3.9 12.45 Q7.9 13.0 33.95 2.55" fill="#acacad" fill-rule="evenodd" stroke="none"/>
      <path d="M33.95 2.55 Q17.05 13.0 3.55 17.1 L4.9 15.75 Q20.7 10.35 33.95 2.55" fill="#acacad" fill-rule="evenodd" stroke="none"/>
      <path d="M34.05 2.7 Q16.15 16.7 6.2 20.75 L5.45 20.15 Q17.2 14.5 34.05 2.7" fill="#acacad" fill-rule="evenodd" stroke="none"/>
      <path d="M34.05 2.7 Q22.8 19.3 19.4 22.85 18.5 23.4 16.95 23.45 19.45 23.25 34.05 2.7" fill="#acacad" fill-rule="evenodd" stroke="none"/>
      <path d="M34.05 2.7 Q33.7 5.45 27.7 21.35 L26.3 21.4 Q27.15 21.2 34.05 2.7" fill="#acacad" fill-rule="evenodd" stroke="none"/>
      <path d="M34.05 2.7 Q23.95 14.25 15.8 19.2 11.7 21.7 9.65 21.85 L8.25 21.4 Q15.6 21.85 34.05 2.7" fill="#acacad" fill-rule="evenodd" stroke="none"/>
      <path d="M22.6 17.9 L21.7 17.15 20.85 17.15 24.9 13.4 26.35 13.1 22.6 17.9" fill="#cfcfcf" fill-rule="evenodd" stroke="none"/>
      <path d="M16.7 23.1 L14.55 22.5 20.85 17.15 21.7 17.15 22.6 17.9 Q19.3 21.85 18.0 22.85 L16.7 23.1" fill="#cfcfcf" fill-rule="evenodd" stroke="none"/>
      <path d="M24.9 13.4 Q28.85 9.55 31.05 6.85 L26.35 13.1 24.9 13.4" fill="#cfcfcf" fill-rule="evenodd" stroke="none"/>
      <path d="M33.4 3.55 L31.05 6.85 Q28.85 9.55 24.9 13.4 L20.85 17.15 14.55 22.5 10.85 21.55 Q14.45 20.4 19.1 17.0 L22.45 14.3 Q27.55 10.05 33.4 3.4 L33.4 3.55" fill="#c4c069" fill-rule="evenodd" stroke="none"/>
      <path d="M26.4 21.0 L25.3 20.1 29.4 12.4 30.45 12.1 26.7 20.9 26.4 21.0" fill="#cfcfcf" fill-rule="evenodd" stroke="none"/>
      <path d="M24.55 21.4 L25.3 20.1 26.4 21.0 24.55 21.4" fill="#cfcfcf" fill-rule="evenodd" stroke="none"/>
      <path d="M30.45 12.1 L29.4 12.4 33.4 4.2 33.4 4.35 30.45 12.1" fill="#cfcfcf" fill-rule="evenodd" stroke="none"/>
      <path d="M24.55 21.4 L19.7 22.5 Q23.65 18.0 33.4 3.6 L33.4 4.2 29.4 12.4 24.55 21.4" fill="#c4c069" fill-rule="evenodd" stroke="none"/>
      <path d="M31.55 6.15 L33.4 3.55 33.4 3.6 Q23.65 18.0 19.7 22.5 L18.0 22.85 Q19.3 21.85 22.6 17.9 L31.55 6.15" fill="#8c8c8c" fill-rule="evenodd" stroke="none"/>
      <path d="M9.65 21.25 L8.6 21.0 8.8 20.9 14.35 19.3 Q11.65 20.9 9.65 21.25" fill="#cfcfcf" fill-rule="evenodd" stroke="none"/>
      <path d="M27.95 20.6 L31.05 12.2 Q30.95 14.55 30.2 15.4 29.7 19.55 27.95 20.6" fill="#c4c069" fill-rule="evenodd" stroke="none"/>
      <path d="M24.25 11.9 L24.7 10.95 29.75 6.95 24.25 11.9" fill="#cfcfcf" fill-rule="evenodd" stroke="none"/>
      <path d="M24.7 10.95 L25.2 9.3 33.0 3.5 33.4 3.2 33.4 3.35 29.75 6.95 24.7 10.95" fill="#c4c069" fill-rule="evenodd" stroke="none"/>
      <path d="M29.05 4.25 L15.35 9.3 Q12.3 9.9 10.7 10.45 15.4 8.45 20.0 6.75 L30.0 3.35 28.1 4.55 29.05 4.25" fill="#cfcfcf" fill-rule="evenodd" stroke="none"/>
      <path d="M15.35 9.3 L29.05 4.25 33.4 2.75 33.3 2.8 Q25.65 5.95 16.55 9.05 L15.35 9.3" fill="#c4c069" fill-rule="evenodd" stroke="none"/>
      <path d="M25.3 8.55 L25.35 8.1 Q31.55 4.45 33.4 2.95 L33.4 3.15 25.3 8.55" fill="#cfcfcf" fill-rule="evenodd" stroke="none"/>
      <path d="M25.35 8.1 L25.4 7.75 24.8 7.8 Q29.25 5.4 33.4 2.85 L33.4 2.95 Q31.55 4.45 25.35 8.1" fill="#c4c069" fill-rule="evenodd" stroke="none"/>
      <path d="M23.65 7.95 L21.85 8.2 Q27.2 5.95 32.55 3.2 L33.1 2.95 23.65 7.95" fill="#cfcfcf" fill-rule="evenodd" stroke="none"/>
      <path d="M20.25 8.45 L32.55 3.2 Q27.2 5.95 21.85 8.2 L20.25 8.45" fill="#c4c069" fill-rule="evenodd" stroke="none"/>
      <path d="M30.0 3.35 L33.4 2.3 33.4 2.75 29.05 4.25 28.1 4.55 30.0 3.35" fill="#c4c069" fill-rule="evenodd" stroke="none"/>
      <path d="M32.55 3.2 L20.25 8.45 16.55 9.05 Q25.65 5.95 33.3 2.8 L33.4 2.75 33.4 2.8 32.55 3.2" fill="#8c8c8c" fill-rule="evenodd" stroke="none"/>
      <path d="M23.65 7.95 L25.75 6.9 33.4 2.85 Q29.25 5.4 24.8 7.8 L23.65 7.95" fill="#8c8c8c" fill-rule="evenodd" stroke="none"/>
      <path d="M25.2 9.3 L25.3 8.55 33.4 3.15 33.4 3.2 33.0 3.5 25.2 9.3" fill="#8c8c8c" fill-rule="evenodd" stroke="none"/>
      <path d="M31.6 10.6 L33.3 5.5 33.2 6.4 32.55 8.9 31.6 10.6" fill="#c4c069" fill-rule="evenodd" stroke="none"/>
      <path d="M33.4 4.45 L33.3 5.5 31.6 10.6 31.05 11.2 31.05 12.2 27.95 20.6 27.15 20.85 27.05 20.85 26.7 20.9 30.45 12.1 33.4 4.45" fill="#8c8c8c" fill-rule="evenodd" stroke="none"/>
      <path d="M9.65 21.25 Q11.65 20.9 14.35 19.3 17.05 18.25 19.1 17.0 14.45 20.4 10.85 21.55 L9.65 21.25 M33.4 3.35 L33.4 3.4 Q27.55 10.05 22.45 14.3 L24.25 11.9 33.4 3.35" fill="#8c8c8c" fill-rule="evenodd" stroke="none"/>
      <path d="M12.5 7.8 L11.8 7.5 14.3 7.1 14.5 7.15 12.5 7.8 M1.75 5.1 L3.05 10.15 Q1.9 8.0 1.45 6.0 L1.8 5.75 1.75 5.1 M3.3 5.6 L5.75 9.8 4.5 10.15 Q3.4 8.5 2.2 4.5 L3.3 5.6 M7.55 9.3 L5.3 6.8 7.55 7.45 9.05 8.85 7.55 9.3" fill="#cfcfcf" fill-rule="evenodd" stroke="none"/>
      <path d="M10.15 7.6 L11.05 8.2 9.05 8.85 7.55 7.45 10.15 7.6" fill="#c4c069" fill-rule="evenodd" stroke="none"/>
      <path d="M5.75 9.8 L3.3 5.6 4.3 6.3 6.75 9.5 5.75 9.8" fill="#c4c069" fill-rule="evenodd" stroke="none"/>
      <path d="M3.2 10.45 L3.05 10.15 1.75 5.1 1.55 3.45 1.65 3.65 Q2.25 6.75 3.8 10.35 L3.2 10.45" fill="#c4c069" fill-rule="evenodd" stroke="none"/>
      <path d="M1.8 5.75 L1.45 6.0 Q1.05 4.35 1.4 3.05 L1.55 3.45 1.8 5.75" fill="#c4c069" fill-rule="evenodd" stroke="none"/>
      <path d="M11.05 8.2 L10.15 7.6 11.8 7.5 12.5 7.8 11.05 8.2" fill="#8c8c8c" fill-rule="evenodd" stroke="none"/>
      <path d="M6.75 9.5 L4.3 6.3 5.3 6.8 7.55 9.3 6.75 9.5" fill="#8c8c8c" fill-rule="evenodd" stroke="none"/>
      <path d="M3.8 10.35 Q2.25 6.75 1.65 3.65 L2.2 4.5 Q3.4 8.5 4.5 10.15 L3.8 10.35" fill="#8c8c8c" fill-rule="evenodd" stroke="none"/>
    </g>
  </defs>
</svg>
